X:733
T:Top of the Maol
M:2/4
L:1/8
K:G
"Am"A2 A B/d/|ed Bd|"G"G2 GA|Bd BG|"Am"A2 A B/d/|ed Bd|
"C"e/f/g/e/ "G"dB|1 "Am"A2 AG:|2 "Am"A2 A3/2 d/ |:"Am"ea a g/a/|\
"Em"ba g2|"C"ef ga|
"G"ge ed|"Am"ea a g/a/|"Em"ba g2|"C"e/f/g/e/ "G"dB\
|1 "Am"A2 A3/2 d/ :|2 "Am"A2 AG|
